X:1
T:Condescension, CM
T:Condescension, CM
T:Joseph Funk, 1832
T:Public Domain Courtesy of the Cyber Hymnal™
C:Joseph Funk, 1832
Z:Public Domain
Z:Courtesy of the Cyber Hymnal™
%%score ( 1 2 ) ( 3 4 )
L:1/8
Q:1/4=108
M:4/4
K:F
V:1 treble 
V:2 treble 
V:3 bass 
V:4 bass 
V:1
 F2 | [FA]2 [FA]2 ([FA][EG]) ([FA][GB]) | [Fc]2 [EB]2 !fermata![FA]2 [FA]2 | %3
 [Ac]2 (cf) [Ac]2 ([GB][FA]) | [EG]6 [EG]2 | (cG) AB [FA]3 [EG] | %6
 ([DF][EG]) ([FA][G=B]) !fermata![Ec]2 [Ac]2 | [Fd]2 (d/e/f/d/) ([Ac][GB]) ([FA][EG]) | %8
 !fermata!F6 |] %9
V:2
 F2 | x8 | x8 | x2 B2 x4 | x8 | F2 F2 x4 | x8 | x2 F2 x4 | F6 |] %9
V:3
 F,2 | [F,C]2 [F,C]2 C2 CB, | A,2 [G,B,]2 !fermata![F,C]2 [F,C]2 | [C,F,]2 G,2 [F,A,]2 D2 | %4
 !fermata![C,C]6 [C,C]2 | [C,C]2 [C,C]2 [F,C]3 [C,C] | [D,A,]2 [D,F,]2 !fermata![C,G,]2 [F,A,]2 | %7
 [B,D]2 [B,C]2 C2 [C,C]2 | !fermata![F,A,]6 |] %9
V:4
 F,2 | x4 C2 (CB,) | A,2 x6 | x2 (G,F,) x (F,E,) x | x8 | x8 | x8 | x4 C2 x2 | x6 |] %9

